assets/azureexpressroutedirect/original.svg

<svg height="18" viewBox="0 0 18 18" width="18" xmlns="http://www.w3.org/2000/svg" xmlns:xlink="http://www.w3.org/1999/xlink"><linearGradient id="a" gradientUnits="userSpaceOnUse" x1="13.119" x2="11.489" y1="5.643" y2="16.919"><stop offset="0" stop-color="#a67af4"/><stop offset="1" stop-color="#773adc"/></linearGradient><path d="m4.894 3.468 1.156.667-3.207 5.556-1.156-.668zm1.164.774 1.157-.668 3.207 5.556-1.156.667zm3.154 5.558v1.335h-6.415v-1.335z" fill="#773adc"/><circle cx="6.124" cy="2.649" fill="#86d633" r="1.626"/><circle cx="1.626" cy="10.564" fill="#86d633" r="1.626"/><circle cx="12.284" cy="11.348" fill="#fff" r="5.325"/><path d="m9.853 12.725a.3.3 0 0 1 -.212-.512l1.128-1.127a.3.3 0 1 1 .424.423l-1.128 1.128a.3.3 0 0 1 -.212.088m.833.833a.3.3 0 0 1 -.212-.512l1.126-1.127a.3.3 0 1 1 .424.424l-1.124 1.128a.3.3 0 0 1 -.214.087m.825.825a.3.3 0 0 1 -.212-.511l1.127-1.128a.3.3 0 1 1 .425.424l-1.127 1.132a.3.3 0 0 1 -.213.083m.413-3.729a.3.3 0 0 1 -.212-.511l1.128-1.128a.3.3 0 0 1 .424.424l-1.128 1.127a.3.3 0 0 1 -.212.088m.833.833a.3.3 0 0 1 -.212-.511l1.127-1.128a.3.3 0 1 1 .425.424l-1.127 1.128a.3.3 0 0 1 -.213.087m.825.825a.3.3 0 0 1 -.212-.512l1.13-1.128a.3.3 0 0 1 .424.425l-1.128 1.128a.3.3 0 0 1 -.214.087" fill="#773adc"/><path d="m9.62 12.022a.3.3 0 0 0 -.425 0l-1.925 1.925a5.72 5.72 0 0 0 2.947 2.634l1.769-1.768a.3.3 0 0 0 0-.426z" fill="#a67af4"/><path d="m14.973 6.249-2.193 2.193a.3.3 0 0 0 0 .425l2.366 2.366a.3.3 0 0 0 .425 0l2.035-2.033a5.7 5.7 0 0 0 -2.633-2.951" fill="#b796f9"/><path d="m12.3 6.335a4.946 4.946 0 1 1 -4.946 4.946 4.95 4.95 0 0 1 4.946-4.946m0-.75a5.7 5.7 0 1 0 5.7 5.7 5.7 5.7 0 0 0 -5.7-5.7" fill="url(#a)"/>​</svg>

<svg xmlns="http://www.w3.org/2000/svg" width="18" height="18" viewBox="0 0 18 18"><defs><linearGradient id="aa436aef-5326-4d7d-ad29-02c369cb3782" x1="13.119" x2="11.489" y1="5.643" y2="16.919" gradientUnits="userSpaceOnUse"><stop offset="0" stop-color="#a67af4"/><stop offset="1" stop-color="#773adc"/></linearGradient></defs><path fill="#773adc" d="m4.894 3.468 1.156.667-3.207 5.556-1.156-.668zM6.058 4.242l1.157-.668 3.207 5.556-1.156.667zM9.212 9.8v1.335H2.797V9.8z"/><circle cx="6.124" cy="2.649" r="1.626" fill="#86d633"/><circle cx="1.626" cy="10.564" r="1.626" fill="#86d633"/><circle cx="12.284" cy="11.348" r="5.325" fill="#fff"/><path fill="#773adc" d="M9.853 12.725a.3.3 0 0 1-.212-.512l1.128-1.127a.3.3 0 1 1 .424.423l-1.128 1.128a.3.3 0 0 1-.212.088M10.686 13.558a.3.3 0 0 1-.212-.512l1.126-1.127a.3.3 0 1 1 .424.424L10.9 13.471a.3.3 0 0 1-.214.087M11.511 14.383a.3.3 0 0 1-.212-.511l1.127-1.128a.3.3 0 1 1 .425.424L11.724 14.3a.3.3 0 0 1-.213.083M11.924 10.654a.3.3 0 0 1-.212-.511l1.128-1.128a.3.3 0 0 1 .424.424l-1.128 1.127a.3.3 0 0 1-.212.088M12.757 11.487a.3.3 0 0 1-.212-.511l1.127-1.128a.3.3 0 1 1 .425.424L12.97 11.4a.3.3 0 0 1-.213.087M13.582 12.312a.3.3 0 0 1-.212-.512l1.13-1.128a.3.3 0 0 1 .424.425l-1.128 1.128a.3.3 0 0 1-.214.087"/><path fill="#a67af4" d="M9.62 12.022a.3.3 0 0 0-.425 0L7.27 13.947a5.72 5.72 0 0 0 2.947 2.634l1.769-1.768a.3.3 0 0 0 0-.426Z"/><path fill="#b796f9" d="M14.973 6.249 12.78 8.442a.3.3 0 0 0 0 .425l2.366 2.366a.3.3 0 0 0 .425 0L17.606 9.2a5.7 5.7 0 0 0-2.633-2.951"/><path fill="url(#aa436aef-5326-4d7d-ad29-02c369cb3782)" d="M12.3 6.335a4.946 4.946 0 1 1-4.946 4.946A4.95 4.95 0 0 1 12.3 6.335m0-.75a5.7 5.7 0 1 0 5.7 5.7 5.7 5.7 0 0 0-5.7-5.7"/>​</svg>
